client/src/assets/article-footer/article-footer.svg

<svg width="268" height="233" viewBox="0 0 268 233" fill="none" xmlns="http://www.w3.org/2000/svg">
<mask id="path-1-inside-1_3975_1329" fill="white">
<path d="M97.2027 47.0398C105.316 39.1536 115.207 33.1685 126.109 29.5475C137.012 25.9264 148.635 24.7665 160.078 26.1575C171.521 27.5484 182.479 31.4529 192.102 37.569C201.726 43.685 209.758 51.8486 215.578 61.4283C221.397 71.008 224.847 81.747 225.661 92.8144C226.476 103.882 224.633 114.981 220.274 125.254C215.916 135.526 209.159 144.697 200.527 152.055C191.895 159.414 181.619 164.764 170.493 167.692L164.323 145.994C171.989 143.977 179.069 140.291 185.017 135.221C190.965 130.15 195.62 123.832 198.623 116.754C201.626 109.676 202.896 102.028 202.335 94.4024C201.774 86.7767 199.397 79.3774 195.387 72.7768C191.377 66.1762 185.843 60.5513 179.212 56.3372C172.581 52.1231 165.031 49.4328 157.147 48.4744C149.262 47.5161 141.254 48.3153 133.742 50.8102C126.229 53.3052 119.415 57.4291 113.824 62.8628L97.2027 47.0398Z"/>
</mask>
<path d="M97.2027 47.0398C105.316 39.1536 115.207 33.1685 126.109 29.5475C137.012 25.9264 148.635 24.7665 160.078 26.1575C171.521 27.5484 182.479 31.4529 192.102 37.569C201.726 43.685 209.758 51.8486 215.578 61.4283C221.397 71.008 224.847 81.747 225.661 92.8144C226.476 103.882 224.633 114.981 220.274 125.254C215.916 135.526 209.159 144.697 200.527 152.055C191.895 159.414 181.619 164.764 170.493 167.692L164.323 145.994C171.989 143.977 179.069 140.291 185.017 135.221C190.965 130.15 195.62 123.832 198.623 116.754C201.626 109.676 202.896 102.028 202.335 94.4024C201.774 86.7767 199.397 79.3774 195.387 72.7768C191.377 66.1762 185.843 60.5513 179.212 56.3372C172.581 52.1231 165.031 49.4328 157.147 48.4744C149.262 47.5161 141.254 48.3153 133.742 50.8102C126.229 53.3052 119.415 57.4291 113.824 62.8628L97.2027 47.0398Z" stroke="url(#paint0_linear_3975_1329)" stroke-width="2" stroke-dasharray="6 6" mask="url(#path-1-inside-1_3975_1329)"/>
<ellipse cx="53.6767" cy="53.6992" rx="53.6767" ry="53.6992" transform="matrix(0.717074 -0.696997 0.724294 0.689492 73.2207 97.2969)" fill="#EBEAEA"/>
<g clip-path="url(#clip0_3975_1329)">
<path d="M144.256 137.379L177.162 149.813C179.424 150.668 180.575 153.218 179.721 155.48L170.395 180.159C169.54 182.422 166.99 183.573 164.728 182.718L156.502 179.61L154.17 185.78C153.704 187.013 153.795 187.663 152.561 187.197L150.308 186.67C149.897 186.515 149.358 186.076 149.102 185.509L144.368 175.025L131.823 170.284C129.56 169.43 128.409 166.879 129.264 164.617L138.589 139.938C139.444 137.676 141.994 136.524 144.256 137.379ZM154.217 166.996L162.444 170.104L165.708 161.466L165.21 154.698L161.097 153.143L161.645 160.401L157.326 158.769L154.217 166.996ZM141.878 162.333L150.104 165.441L153.368 156.804L152.87 150.035L148.757 148.481L149.305 155.738L144.986 154.106L141.878 162.333Z" fill="#9ABFF5"/>
</g>
<g clip-path="url(#clip1_3975_1329)">
<path d="M135.35 60.1364L86.6708 41.654C83.3241 40.3834 79.5463 42.082 78.2756 45.4286L64.4139 81.938C63.1432 85.2847 64.8418 89.0625 68.1885 90.3332L80.3583 94.9538L76.8928 104.081C76.1997 105.907 75.4613 106.538 77.2867 107.231L80.3013 108.856C80.9098 109.087 81.9381 109.13 82.7776 108.752L98.3087 101.769L116.868 108.816C120.214 110.086 123.992 108.388 125.263 105.041L139.125 68.5316C140.395 65.1849 138.697 61.407 135.35 60.1364ZM95.2613 83.207L83.0916 78.5864L87.9432 65.8081L95.1328 58.791L101.218 61.1012L93.4928 68.6114L99.8819 71.0372L95.2613 83.207ZM113.516 90.1378L101.346 85.5173L106.198 72.739L113.387 65.7218L119.472 68.0321L111.747 75.5423L118.137 77.9681L113.516 90.1378Z" fill="#81B0F3"/>
</g>
<defs>
<linearGradient id="paint0_linear_3975_1329" x1="97.2027" y1="47.0398" x2="199.995" y2="152.793" gradientUnits="userSpaceOnUse">
<stop stop-color="#086DFC"/>
<stop offset="0.246177" stop-color="#2C81FA"/>
<stop offset="0.516378" stop-color="#5497F8"/>
<stop offset="0.821311" stop-color="#80B0F6"/>
<stop offset="1" stop-color="#9ABFF5"/>
</linearGradient>
<clipPath id="clip0_3975_1329">
<rect width="69.5457" height="69.5457" fill="white" transform="matrix(-0.935444 -0.353475 -0.353475 0.935444 198.638 146.586)"/>
</clipPath>
<clipPath id="clip1_3975_1329">
<rect width="102.946" height="102.946" fill="white" transform="translate(66.4377 14.0547) rotate(20.7906)"/>
</clipPath>
</defs>
</svg>

<svg xmlns="http://www.w3.org/2000/svg" width="162" height="162" fill="none"><mask id="b" fill="#fff"><path d="M97.203 47.04c8.113-7.886 18.004-13.871 28.906-17.492a78 78 0 0 1 33.969-3.39c11.443 1.39 22.401 5.295 32.024 11.411s17.656 14.28 23.476 23.86c5.819 9.579 9.269 20.318 10.083 31.385a69.85 69.85 0 0 1-5.387 32.44c-4.358 10.272-11.115 19.443-19.747 26.801-8.632 7.359-18.908 12.709-30.034 15.637l-6.17-21.698c7.666-2.017 14.746-5.703 20.694-10.773 5.948-5.071 10.603-11.389 13.606-18.467a48.14 48.14 0 0 0 3.712-22.352c-.561-7.625-2.938-15.025-6.948-21.625s-9.544-12.226-16.175-16.44-14.181-6.904-22.065-7.863a53.75 53.75 0 0 0-23.405 2.336c-7.513 2.495-14.327 6.62-19.918 12.053z"/></mask><path stroke="url(#a)" stroke-dasharray="6, 6" stroke-width="2" d="M97.203 47.04c8.113-7.886 18.004-13.871 28.906-17.492a78 78 0 0 1 33.969-3.39c11.443 1.39 22.401 5.295 32.024 11.411s17.656 14.28 23.476 23.86c5.819 9.579 9.269 20.318 10.083 31.385a69.85 69.85 0 0 1-5.387 32.44c-4.358 10.272-11.115 19.443-19.747 26.801-8.632 7.359-18.908 12.709-30.034 15.637l-6.17-21.698c7.666-2.017 14.746-5.703 20.694-10.773 5.948-5.071 10.603-11.389 13.606-18.467a48.14 48.14 0 0 0 3.712-22.352c-.561-7.625-2.938-15.025-6.948-21.625s-9.544-12.226-16.175-16.44-14.181-6.904-22.065-7.863a53.75 53.75 0 0 0-23.405 2.336c-7.513 2.495-14.327 6.62-19.918 12.053z" mask="url(#b)" style="stroke:url(#a)" transform="translate(-63.992 -25.587)"/><ellipse cx="8.066" cy="111.597" fill="#ebeaea" rx="53.677" ry="53.699" transform="matrix(.71707 -.697 .7243 .6895 0 0)"/><g clip-path="url(#c)" transform="translate(-63.992 -25.587)"><path fill="#9abff5" d="m144.256 137.379 32.906 12.434a4.41 4.41 0 0 1 2.559 5.667l-9.326 24.679a4.41 4.41 0 0 1-5.667 2.559l-8.226-3.108-2.332 6.17c-.466 1.233-.375 1.883-1.609 1.417l-2.253-.527c-.411-.155-.95-.594-1.206-1.161l-4.734-10.484-12.545-4.741a4.41 4.41 0 0 1-2.559-5.667l9.325-24.679a4.41 4.41 0 0 1 5.667-2.559m9.961 29.617 8.227 3.108 3.264-8.638-.498-6.768-4.113-1.555.548 7.258-4.319-1.632zm-12.339-4.663 8.226 3.108 3.264-8.637-.498-6.769-4.113-1.554.548 7.257-4.319-1.632z"/></g><g clip-path="url(#d)" transform="translate(-63.992 -25.587)"><path fill="#81b0f3" d="M135.35 60.136 86.67 41.654c-3.346-1.27-7.124.428-8.394 3.775L64.414 81.938c-1.27 3.347.428 7.125 3.774 8.395l12.17 4.62-3.465 9.128c-.693 1.826-1.432 2.457.394 3.15l3.014 1.625c.609.231 1.637.274 2.477-.104l15.53-6.983 18.56 7.047c3.346 1.27 7.124-.428 8.395-3.775l13.862-36.51c1.27-3.346-.428-7.124-3.775-8.395M95.261 83.207l-12.17-4.62 4.852-12.779 7.19-7.017 6.085 2.31-7.725 7.51 6.389 2.426zm18.255 6.93-12.17-4.62 4.852-12.778 7.189-7.017 6.085 2.31-7.725 7.51 6.39 2.426z"/></g><defs><clipPath id="c"><path fill="#fff" d="m198.638 146.586-65.056-24.583-24.583 65.057 65.056 24.582z"/></clipPath><clipPath id="d"><path fill="#fff" d="m66.438 14.055 96.242 36.54-36.54 96.243-96.243-36.54z"/></clipPath><linearGradient id="a" x1="97.203" x2="199.995" y1="47.04" y2="152.793" gradientUnits="userSpaceOnUse"><stop stop-color="#086DFC"/><stop offset=".246" stop-color="#2C81FA"/><stop offset=".516" stop-color="#5497F8"/><stop offset=".821" stop-color="#80B0F6"/><stop offset="1" stop-color="#9ABFF5"/></linearGradient></defs></svg>
